build/images/icons-category/icon-auto.svg

<svg width="28" height="32" viewBox="0 0 28 32" fill="none" xmlns="http://www.w3.org/2000/svg">
<path d="M11.6903 24.0926C11.687 24.0521 11.6831 24.015 11.6791 23.9752C11.6538 23.6872 11.6231 23.4093 11.5857 23.1462C11.5812 23.1154 11.576 23.086 11.5711 23.0552C11.5302 22.7839 11.4836 22.5236 11.4288 22.2785L11.4226 22.2514C11.3634 21.9911 11.2973 21.7455 11.2222 21.5113C9.62835 21.6482 8.05335 21.9533 6.52346 22.4219C6.58218 22.4749 6.63868 22.5299 6.69865 22.5816C6.79653 22.667 6.89466 22.7503 6.99551 22.8342C7.23116 23.0241 7.47153 23.2092 7.72329 23.3802C7.75253 23.4003 7.78276 23.4172 7.812 23.4364C8.06698 23.6069 8.32816 23.7671 8.59578 23.9167L8.72587 23.9881C9.33099 24.3146 9.96535 24.5841 10.6203 24.7929L10.7283 24.8265C11.0609 24.929 11.4003 25.0183 11.744 25.0893C11.744 25.0661 11.744 25.0437 11.7413 25.0201C11.7312 24.7006 11.7146 24.3885 11.6903 24.0926Z" fill="white"/>
<path d="M16.5763 22.2514L16.5701 22.2785C16.5141 22.5236 16.4688 22.7847 16.4279 23.0552C16.4227 23.086 16.4177 23.1154 16.4133 23.1463C16.3751 23.4093 16.3449 23.6872 16.3199 23.9752C16.3159 24.015 16.3119 24.0521 16.3085 24.0926C16.2844 24.3885 16.2676 24.6983 16.2572 25.0206C16.2572 25.0442 16.2572 25.0666 16.2542 25.0898C16.5991 25.0188 16.9374 24.9295 17.2702 24.8272L17.3782 24.7934C18.0331 24.5846 18.6672 24.3151 19.2726 23.9886L19.4024 23.9172C19.6713 23.7671 19.9325 23.6071 20.1865 23.4369C20.2155 23.4172 20.2459 23.4003 20.2749 23.3807C20.5257 23.2119 20.7661 23.0248 21.003 22.8347C21.1038 22.7526 21.2017 22.666 21.2998 22.5821C21.3595 22.5304 21.4163 22.4754 21.475 22.4224C19.9449 21.9538 18.3699 21.6487 16.776 21.5121C16.7034 21.7437 16.6373 21.9906 16.5763 22.2514Z" fill="white"/>
<path d="M21.5243 30.372C21.6738 30.3693 21.8239 30.3668 21.9666 30.3636C22.1347 30.3591 22.2987 30.3529 22.46 30.3467C22.6937 30.3377 22.9177 30.327 23.132 30.3146C23.2473 30.3078 23.3645 30.3016 23.4747 30.2939C23.6192 30.2842 23.7575 30.2735 23.893 30.2623L24.1383 30.2404C24.2783 30.2275 24.4183 30.2145 24.5482 30.1998L24.5802 30.1959C24.8959 30.1605 25.1821 30.1212 25.443 30.0796L25.503 30.0699C25.6306 30.0493 25.7515 30.0274 25.867 30.0052L25.9158 29.9953C26.4931 29.9012 27.0544 29.726 27.5832 29.4749L27.5973 29.4677C27.6382 29.4458 27.6756 29.4249 27.7093 29.4043C27.8194 29.3436 27.9177 29.2637 28 29.1686C27.9737 27.1962 27.048 25.5344 25.2425 24.2198C24.2603 25.3155 23.1246 26.2616 21.871 27.0288L21.8083 27.0676C21.6289 27.1758 21.448 27.2806 21.2649 27.3819L21.1363 27.4516C20.9693 27.5416 20.8013 27.6285 20.6323 27.7121C20.5678 27.7435 20.5034 27.7746 20.4385 27.8049C20.2844 27.8778 20.1292 27.9493 19.9726 28.0169C19.8869 28.054 19.8002 28.0894 19.7132 28.1247C19.5732 28.1809 19.4332 28.2372 19.2909 28.2934C19.1824 28.3345 19.0721 28.3728 18.9624 28.4111C18.8375 28.4544 18.7131 28.4987 18.5872 28.5388C18.4611 28.5786 18.324 28.6187 18.1912 28.6567C18.0792 28.6888 17.9729 28.7219 17.8619 28.7513C17.7097 28.7919 17.5556 28.8272 17.4017 28.8638C17.3071 28.8857 17.2134 28.9098 17.1217 28.9295C16.9537 28.9656 16.7795 28.9959 16.6075 29.0258C16.5248 29.0402 16.443 29.0571 16.3595 29.0706C16.1754 29.0994 15.9893 29.1223 15.8029 29.1445C15.7301 29.1534 15.6572 29.1651 15.5844 29.1726C15.3869 29.1932 15.1869 29.2074 14.987 29.2204C14.9238 29.2241 14.8611 29.2316 14.7976 29.2348C14.5322 29.2487 14.2664 29.2557 14.0002 29.2557C13.7341 29.2557 13.4697 29.2487 13.2073 29.2348C13.1441 29.2316 13.0814 29.2241 13.018 29.2204C12.8182 29.2074 12.6183 29.1932 12.4205 29.1726C12.3477 29.1651 12.2751 29.1534 12.2022 29.1445C12.0156 29.1223 11.8298 29.0994 11.6457 29.0706C11.5622 29.0571 11.4777 29.0402 11.3974 29.0258C11.2256 28.9959 11.0537 28.9656 10.8834 28.9295C10.7888 28.9098 10.6954 28.8857 10.6007 28.8638C10.4466 28.8282 10.2927 28.7929 10.1403 28.7513C10.0283 28.7219 9.92075 28.6888 9.81098 28.6567C9.6784 28.6187 9.54608 28.5808 9.41525 28.5388C9.28416 28.4965 9.16472 28.4544 9.03983 28.4111C8.92783 28.3728 8.81979 28.3345 8.71125 28.2934C8.56951 28.2407 8.43124 28.1809 8.28901 28.1247C8.20228 28.0894 8.1153 28.054 8.02981 28.0169C7.87296 27.9493 7.71784 27.8778 7.56371 27.8049C7.49879 27.7746 7.43436 27.7435 7.36993 27.7121C7.19994 27.6287 7.03194 27.5419 6.86616 27.4516L6.73731 27.3819C6.55443 27.2806 6.37329 27.1758 6.19414 27.0676L6.13144 27.0288C4.87784 26.2616 3.74194 25.3155 2.75967 24.2198C0.952491 25.5344 0.0274653 27.1962 0.000703223 29.1686C0.082724 29.2637 0.180851 29.3433 0.290625 29.4043C0.324326 29.4249 0.361743 29.4458 0.40263 29.4677L0.416754 29.4749C0.945552 29.726 1.50681 29.9012 2.08443 29.9953L2.13299 30.0052C2.24847 30.0274 2.36939 30.0493 2.49701 30.0699L2.55648 30.0796C2.8179 30.1212 3.10411 30.1605 3.4198 30.1959L3.45177 30.1998C3.58236 30.2145 3.72162 30.2275 3.86162 30.2404L4.10694 30.2623C4.24249 30.2735 4.38076 30.2842 4.52522 30.2939C4.63723 30.3016 4.7527 30.3078 4.86793 30.3146C5.08277 30.327 5.30678 30.3377 5.53995 30.3467C5.70127 30.3529 5.86258 30.3591 6.03331 30.3636C6.17605 30.3668 6.32621 30.3693 6.47563 30.372C6.73731 30.376 6.99774 30.3805 7.27998 30.3805H20.7202C21.0002 30.3805 21.2627 30.376 21.5243 30.372ZM3.19877 26.8177C2.79982 27.254 2.50989 27.779 2.35254 28.3497C2.28812 28.5968 2.06584 28.769 1.8116 28.7692C1.76328 28.7692 1.71496 28.7627 1.66838 28.75C1.36953 28.6707 1.19112 28.3631 1.27017 28.063C1.47088 27.3212 1.84431 26.6381 2.35998 26.07C2.5654 25.838 2.9195 25.8174 3.15045 26.0239C3.38164 26.2305 3.40221 26.5858 3.19654 26.8177H3.19877Z" fill="white"/>
<path d="M15.6803 14.072C15.6803 15.0037 14.9282 15.759 14.0002 15.759C13.0725 15.759 12.3204 15.0037 12.3204 14.072C12.3204 13.1401 13.0725 12.3848 14.0002 12.3848C14.9282 12.3848 15.6803 13.1401 15.6803 14.072Z" fill="white"/>
<path d="M2.90092 15.4964C2.9304 15.7308 2.96287 15.9648 3.00722 16.1949C3.03349 16.3338 3.06719 16.4717 3.09841 16.6093C3.14549 16.8118 3.19579 17.0132 3.25304 17.2117C3.29566 17.3573 3.34199 17.5024 3.39031 17.647C3.42104 17.738 3.45623 17.8269 3.48869 17.9167C4.72866 17.6047 6.00209 17.4464 7.28048 17.4461C12.0342 17.4461 12.7964 21.7607 12.8713 25.2513C12.9694 25.2625 13.0588 25.2679 13.1513 25.2759C13.4313 25.2973 13.7113 25.3192 13.9985 25.3192C14.2859 25.3192 14.5652 25.2973 14.846 25.2759C14.9399 25.2679 15.0296 25.2625 15.126 25.2513C15.2043 21.7607 15.9665 17.4461 20.7202 17.4461C21.9984 17.4464 23.2718 17.6047 24.5118 17.9167C24.5442 17.8269 24.5797 17.738 24.6104 17.647C24.6585 17.5024 24.705 17.3573 24.7477 17.2117C24.8037 17.0132 24.855 16.8118 24.902 16.6093C24.9335 16.4717 24.967 16.3338 24.9935 16.1949C25.0376 15.9648 25.0701 15.7308 25.0998 15.4964C25.1149 15.3795 25.1345 15.2635 25.1456 15.1465C25.1793 14.7924 25.2016 14.4346 25.2016 14.072C25.2014 13.7209 25.1826 13.37 25.1456 13.0209C24.2731 13.3698 23.3389 13.536 22.4 13.5096C21.0367 13.4656 19.7241 12.9808 18.6571 12.1273C18.8422 12.5774 18.9614 13.0522 19.0112 13.5365L19.0139 13.5557C19.2102 15.4778 18.3 17.3441 16.6675 18.3666C15.035 19.3891 12.9654 19.3891 11.3332 18.3666C9.70071 17.3441 8.7903 15.4778 8.9868 13.5557V13.5365C9.03636 13.0522 9.15555 12.5774 9.34066 12.1273C8.27464 12.9803 6.9628 13.4651 5.60041 13.5096C4.66226 13.536 3.72856 13.3695 2.85656 13.0209C2.81964 13.37 2.80105 13.7209 2.80056 14.072C2.80056 14.4346 2.82137 14.7924 2.85656 15.1465C2.86598 15.2635 2.8858 15.3795 2.90092 15.4964ZM23.5201 14.6344C23.8293 14.6344 24.0801 14.886 24.0801 15.1966C24.0801 15.5074 23.8293 15.759 23.5201 15.759C23.2108 15.759 22.9601 15.5074 22.9601 15.1966C22.9601 14.886 23.2108 14.6344 23.5201 14.6344ZM21.28 14.6344C21.5895 14.6344 21.84 14.886 21.84 15.1966C21.84 15.5074 21.5895 15.759 21.28 15.759C20.9708 15.759 20.7202 15.5074 20.7202 15.1966C20.7202 14.886 20.9708 14.6344 21.28 14.6344ZM14.0002 20.2579C14.3095 20.2579 14.5602 20.5097 14.5602 20.8203C14.5602 21.1308 14.3095 21.3827 14.0002 21.3827C13.691 21.3827 13.4402 21.1308 13.4402 20.8203C13.4402 20.5097 13.691 20.2579 14.0002 20.2579ZM6.72046 14.6344C7.02971 14.6344 7.28048 14.886 7.28048 15.1966C7.28048 15.5074 7.02971 15.759 6.72046 15.759C6.4112 15.759 6.16043 15.5074 6.16043 15.1966C6.16043 14.886 6.4112 14.6344 6.72046 14.6344ZM4.48062 14.6344C4.78987 14.6344 5.04039 14.886 5.04039 15.1966C5.04039 15.5074 4.78987 15.759 4.48062 15.759C4.17137 15.759 3.9206 15.5074 3.9206 15.1966C3.9206 14.886 4.17137 14.6344 4.48062 14.6344Z" fill="white"/>
<path d="M14.0002 18.0085C16.1642 18.0061 17.9176 16.245 17.9201 14.072C17.9201 13.9399 17.9129 13.8092 17.9005 13.6783C17.8973 13.648 17.8916 13.6181 17.8877 13.5878C17.8755 13.4887 17.8619 13.3897 17.8428 13.2931C17.8374 13.266 17.8299 13.2396 17.824 13.2132C17.8014 13.1125 17.7774 13.0124 17.7472 12.9146C17.7422 12.8967 17.7355 12.8798 17.7298 12.8616C17.6951 12.7549 17.6575 12.6499 17.6143 12.5468L17.6044 12.5237C17.1036 11.3536 16.0718 10.4976 14.8331 10.2248C14.8172 10.2209 14.8016 10.2159 14.786 10.2124C14.6683 10.1888 14.5486 10.1708 14.4277 10.1562H14.4148C14.1392 10.1263 13.8615 10.1263 13.5859 10.1562H13.573C13.4521 10.1691 13.3322 10.1873 13.2147 10.2124C13.1989 10.2159 13.1832 10.2209 13.1676 10.2248C11.9286 10.4976 10.8968 11.3536 10.3963 12.5237L10.3861 12.5468C10.343 12.6499 10.3056 12.7549 10.2709 12.8616C10.2652 12.8798 10.2585 12.8967 10.2535 12.9146C10.2231 13.0124 10.1975 13.1125 10.1767 13.2132C10.1705 13.2396 10.1633 13.266 10.1576 13.2931C10.1386 13.3897 10.1252 13.4887 10.1128 13.5878C10.1088 13.6181 10.1034 13.648 10.0999 13.6783C10.0878 13.807 10.0803 13.9376 10.0803 14.072C10.0828 16.245 11.8365 18.0061 14.0002 18.0085ZM14.0002 11.26C15.5467 11.26 16.8003 12.519 16.8003 14.072C16.8003 15.6248 15.5467 16.8838 14.0002 16.8838C12.454 16.8838 11.2004 15.6248 11.2004 14.072C11.2021 12.5197 12.4547 11.262 14.0002 11.26Z" fill="white"/>
<path d="M3.61754 23.4921C3.6287 23.5043 3.63935 23.5173 3.65124 23.5297C3.78828 23.6798 3.92902 23.8281 4.07349 23.9747C4.09183 23.9931 4.11041 24.0127 4.12949 24.0309C4.27396 24.1755 4.42164 24.3168 4.57231 24.4549L4.6184 24.4965C4.775 24.6393 4.93533 24.7777 5.09863 24.9148L5.10432 24.9188C5.93494 25.6066 6.84138 26.1959 7.8063 26.6749C7.8623 26.7025 7.9183 26.7311 7.97431 26.7588C8.10638 26.8225 8.24143 26.882 8.37623 26.9417C8.46643 26.9815 8.55613 27.0216 8.64732 27.0596C8.76453 27.1087 8.88372 27.1547 9.00241 27.2002C9.12111 27.2458 9.22642 27.2858 9.33843 27.3261C9.45043 27.3667 9.55228 27.4006 9.66032 27.4386C9.78917 27.4809 9.91852 27.5207 10.0491 27.5596C10.147 27.5882 10.2456 27.6158 10.3442 27.6439C10.487 27.6827 10.6309 27.7183 10.7747 27.7524C10.8661 27.7746 10.9568 27.7965 11.0487 27.8161C11.2026 27.8492 11.3582 27.8786 11.5138 27.9067C11.5991 27.9224 11.6818 27.9393 11.7703 27.9527C11.9339 27.9791 12.0986 28.0005 12.2632 28.0214C12.3444 28.0314 12.4245 28.0438 12.5058 28.0523C12.6827 28.0714 12.8614 28.0844 13.0393 28.0966C13.1099 28.1011 13.1793 28.109 13.2499 28.1125C13.4997 28.1247 13.7497 28.1309 14.0002 28.1309C14.2507 28.1309 14.5008 28.1239 14.7501 28.1103C14.8207 28.1068 14.8901 28.0988 14.9607 28.0943C15.1389 28.0821 15.3173 28.0692 15.4944 28.05C15.5755 28.0416 15.6555 28.0291 15.7368 28.0192C15.9013 27.9983 16.0661 27.9769 16.2297 27.9505C16.3159 27.9371 16.4009 27.9201 16.4861 27.9045C16.6417 27.8763 16.7974 27.8482 16.9515 27.8139C17.0432 27.7942 17.1339 27.7721 17.2253 27.7502C17.3693 27.7158 17.513 27.6805 17.656 27.6417C17.7543 27.6148 17.853 27.5854 17.9511 27.5573C18.0814 27.5185 18.2108 27.4787 18.3396 27.4364C18.4474 27.4008 18.5547 27.3635 18.6615 27.3239C18.7735 27.2836 18.8855 27.2415 18.9975 27.198C19.1162 27.1524 19.2357 27.1064 19.3526 27.0574C19.4438 27.0193 19.5335 26.9792 19.6237 26.9394C19.7585 26.8797 19.8936 26.8202 20.0257 26.7565C20.0817 26.7297 20.1377 26.7003 20.1937 26.6727C21.1586 26.1936 22.0653 25.6041 22.8956 24.9166L22.9013 24.9126C23.0649 24.7769 23.225 24.6371 23.3818 24.4943L23.4277 24.4525C23.5771 24.3151 23.7248 24.1737 23.8707 24.0287C23.8895 24.01 23.9081 23.9903 23.9267 23.9724C24.0707 23.8266 24.2114 23.6783 24.349 23.5275C24.3606 23.515 24.3713 23.5021 24.3824 23.4899C29.4469 17.8669 29.1592 9.22397 23.7322 3.95313C18.3054 -1.31771 9.69402 -1.31771 4.26727 3.95313C-1.15973 9.22397 -1.44742 17.8669 3.61705 23.4899L3.61754 23.4921ZM14.0002 1.70006C20.801 1.70778 26.3123 7.2424 26.3199 14.072C26.3199 14.4689 26.2994 14.8594 26.2639 15.2491C26.2639 15.2675 26.2639 15.2871 26.2595 15.3053C26.2213 15.6888 26.1643 16.066 26.0915 16.4383C26.087 16.462 26.0838 16.4861 26.0791 16.5097C26.0035 16.8882 25.9113 17.26 25.7993 17.6256L25.7842 17.6818C25.6722 18.0528 25.5399 18.4167 25.3922 18.7728C25.387 18.7857 25.3838 18.7991 25.3781 18.8121L25.3748 18.817C24.631 20.603 23.4822 22.1899 22.0199 23.4511L22.008 23.4633C21.872 23.5802 21.7342 23.694 21.5932 23.8047L21.4812 23.8935C21.3786 23.9724 21.275 24.0488 21.1697 24.1242C21.0946 24.1805 21.0191 24.2367 20.9425 24.2867C20.8803 24.33 20.8171 24.3711 20.7537 24.4126C20.6355 24.4908 20.5175 24.5684 20.3971 24.6426L20.3473 24.6724C18.8957 25.5536 17.2759 26.119 15.5928 26.3315L15.2568 26.3696C15.2025 26.3711 15.148 26.3768 15.0945 26.3865C14.8861 26.4044 14.678 26.4213 14.4678 26.4293C14.3167 26.436 14.1677 26.4405 14.0198 26.4405H13.9829C13.8362 26.4405 13.6873 26.436 13.5349 26.4293C13.3245 26.4213 13.1161 26.4044 12.9084 26.386V26.382C12.841 26.3763 12.7796 26.3708 12.7459 26.3708L12.421 26.3315L12.533 26.3489C12.4446 26.3387 12.3568 26.3263 12.2689 26.3141L12.424 26.3315L11.7743 26.2302V26.2352C10.3182 25.9712 8.92262 25.4411 7.65688 24.6719L7.60682 24.6421C7.48664 24.5679 7.36844 24.4903 7.25024 24.4121C7.18706 24.3706 7.12362 24.3295 7.06142 24.2862C6.98485 24.2332 6.90928 24.1787 6.83419 24.1235C6.72888 24.0483 6.6253 23.9717 6.52271 23.893L6.41071 23.8042C6.26971 23.6917 6.1307 23.5792 5.9959 23.4628L5.98177 23.4503C4.51952 22.1894 3.37074 20.6028 2.62685 18.817L2.62363 18.8116C2.61793 18.7981 2.61471 18.7844 2.60901 18.7715C2.46281 18.4154 2.33197 18.0518 2.217 17.6811L2.20188 17.6251C2.08988 17.2595 1.99819 16.8877 1.92187 16.5092C1.91741 16.4856 1.91419 16.4615 1.90973 16.4378C1.83737 16.0655 1.78038 15.6883 1.74172 15.3046C1.74172 15.2861 1.74172 15.2665 1.73726 15.2483C1.70133 14.8594 1.68052 14.4689 1.68052 14.072C1.6882 7.2424 7.19945 1.70778 14.0002 1.70006Z" fill="white"/>
<path d="M1.1205 32H5.60041C5.97706 32 6.32844 31.8099 6.5356 31.4938H6.45729L6.00358 31.4884L5.49411 31.4714L4.80523 31.4376L4.45262 31.4152L4.01575 31.3814C4.01575 31.3814 3.46688 31.3308 3.33258 31.3197C2.96287 31.2746 2.66055 31.2353 2.38054 31.1903C2.38054 31.1903 2.04453 31.134 1.92138 31.1116L1.85967 31.1002C1.21838 30.9859 0.593929 30.7913 0.000703223 30.5211V30.8752C0.000703223 31.1736 0.118654 31.4598 0.328786 31.6705C0.53867 31.8815 0.823636 32 1.1205 32Z" fill="white"/>
<path d="M28 30.8752V30.5211C27.4031 30.7921 26.7749 30.9867 26.1296 31.1002C26.1296 31.1002 25.8216 31.1564 25.6873 31.1791L25.6199 31.1903C25.3399 31.2353 25.0376 31.2746 24.7016 31.3139C24.5336 31.3309 24.3881 31.3478 24.2424 31.359C24.2424 31.359 23.6992 31.404 23.5538 31.4152L23.1952 31.4376C22.9769 31.4488 22.7418 31.4602 22.5009 31.4714L21.9969 31.4884L21.5434 31.4938H21.4649C21.672 31.8099 22.0234 32 22.4 32H26.88C27.1771 32 27.4618 31.8815 27.6719 31.6705C27.882 31.4598 28 31.1736 28 30.8752Z" fill="white"/>
</svg>

<svg width="28" height="32" fill="none" xmlns="http://www.w3.org/2000/svg"><path d="M11.69 24.093l-.01-.118a15.658 15.658 0 00-.094-.829l-.015-.09c-.04-.272-.087-.532-.142-.777l-.006-.028a8.84 8.84 0 00-.2-.74 22.667 22.667 0 00-4.7.91c.06.054.116.109.176.16a11.137 11.137 0 001.025.799c.029.02.059.037.088.056.255.17.516.331.784.48l.13.072c.605.327 1.24.596 1.894.805l.108.034c.333.102.672.191 1.016.262 0-.023 0-.045-.003-.069-.01-.32-.026-.631-.05-.927zm4.886-1.842l-.006.027c-.056.246-.101.507-.142.777l-.015.091c-.038.263-.068.541-.093.83l-.012.117c-.024.296-.04.605-.05.928 0 .023 0 .046-.004.069.345-.071.683-.16 1.016-.263l.108-.034a11.084 11.084 0 001.895-.804l.13-.072c.268-.15.53-.31.784-.48.028-.02.059-.037.088-.056.25-.17.491-.356.728-.546.1-.082.199-.169.297-.253.06-.052.116-.107.175-.16a22.651 22.651 0 00-4.699-.91c-.073.232-.139.479-.2.74z" fill="#fff"/><path d="M21.524 30.372l.443-.008a42.052 42.052 0 001.165-.05c.115-.006.232-.012.343-.02.144-.01.282-.02.418-.032l.245-.022c.14-.012.28-.025.41-.04l.032-.004c.316-.036.602-.075.863-.116l.06-.01c.128-.02.248-.043.364-.065l.049-.01a6.22 6.22 0 001.667-.52l.014-.007c.041-.022.079-.043.112-.064.11-.06.209-.14.291-.235-.026-1.973-.952-3.635-2.758-4.95a15.145 15.145 0 01-3.371 2.81l-.063.039c-.18.108-.36.213-.543.314l-.129.07a16.248 16.248 0 01-.697.353 14.906 14.906 0 01-.726.32l-.422.168c-.109.041-.219.08-.329.118-.125.043-.249.088-.375.128-.126.04-.263.08-.396.118-.112.032-.218.065-.33.094-.151.04-.305.076-.46.113-.094.022-.188.046-.28.066-.167.036-.341.066-.513.096-.083.014-.165.031-.248.045-.185.028-.37.051-.557.073-.073.01-.146.021-.219.029-.197.02-.397.034-.597.047-.063.004-.126.012-.19.015a15.243 15.243 0 01-1.59 0c-.063-.003-.126-.01-.189-.015-.2-.013-.4-.027-.598-.047-.072-.008-.145-.02-.218-.028a15.289 15.289 0 01-.556-.074c-.084-.014-.168-.03-.249-.045-.171-.03-.343-.06-.514-.096-.094-.02-.188-.044-.282-.066-.154-.036-.308-.071-.46-.113-.113-.03-.22-.062-.33-.094a12.922 12.922 0 01-.396-.118c-.13-.043-.25-.085-.375-.128-.112-.038-.22-.077-.329-.118-.141-.052-.28-.112-.422-.168-.087-.036-.174-.071-.26-.108a14.688 14.688 0 01-1.163-.565l-.129-.07a16.745 16.745 0 01-.543-.314l-.063-.04A15.148 15.148 0 012.76 24.22C.952 25.534.027 27.196 0 29.169c.083.095.18.174.29.235.034.02.072.042.113.064l.014.007c.529.251 1.09.426 1.667.52l.049.01c.115.022.236.044.364.065l.06.01c.26.041.547.08.863.116l.032.004c.13.015.27.027.41.04l.245.022c.135.011.274.022.418.032.112.008.228.014.343.02.215.013.439.024.672.033l.493.017.443.008c.261.004.522.009.804.009h13.44c.28 0 .543-.005.804-.009zM3.2 26.818a3.745 3.745 0 00-.846 1.532.56.56 0 11-1.083-.287 4.85 4.85 0 011.09-1.993.558.558 0 01.79-.046.564.564 0 01.047.794H3.2zm12.48-12.746c0 .932-.752 1.687-1.68 1.687-.928 0-1.68-.755-1.68-1.687s.752-1.687 1.68-1.687c.928 0 1.68.755 1.68 1.687z" fill="#fff"/><path d="M2.9 15.496c.03.235.063.469.107.699.026.139.06.277.091.414.047.203.098.404.155.603.043.145.089.29.137.435.031.091.066.18.099.27 1.24-.312 2.513-.47 3.791-.47 4.754 0 5.516 4.314 5.591 7.804.098.011.188.017.28.025.28.021.56.043.848.043.287 0 .566-.022.847-.043.094-.008.184-.014.28-.025.078-3.49.84-7.805 5.594-7.805 1.278 0 2.552.159 3.792.47.032-.09.068-.178.098-.269.049-.145.095-.29.138-.435.056-.199.107-.4.154-.603.031-.137.065-.275.091-.414.045-.23.077-.464.107-.699.015-.117.034-.232.046-.35a10.028 10.028 0 000-2.126 6.873 6.873 0 01-2.746.49 6.318 6.318 0 01-3.743-1.383c.185.45.304.925.354 1.41l.003.019a5.068 5.068 0 01-2.346 4.81 5.022 5.022 0 01-5.335 0 5.068 5.068 0 01-2.346-4.81v-.02a5.08 5.08 0 01.354-1.409A6.316 6.316 0 015.6 13.51a6.87 6.87 0 01-2.744-.49 10.13 10.13 0 000 2.127c.009.117.029.232.044.35zm20.62-.862c.31 0 .56.252.56.563a.561.561 0 11-.56-.563zm-2.24 0c.31 0 .56.252.56.563a.56.56 0 11-1.12 0c0-.311.25-.563.56-.563zM14 20.258a.561.561 0 010 1.125.561.561 0 010-1.125zm-7.28-5.624c.31 0 .56.252.56.563a.561.561 0 11-.56-.563zm-2.24 0c.31 0 .56.252.56.563a.56.56 0 11-1.12 0c0-.311.251-.563.56-.563z" fill="#fff"/><path d="M14 18.009a3.933 3.933 0 003.9-4.33c-.003-.031-.008-.06-.012-.091a4.117 4.117 0 00-.045-.295l-.019-.08a4.34 4.34 0 00-.077-.298l-.017-.053a4.067 4.067 0 00-.116-.315l-.01-.023a3.938 3.938 0 00-2.77-2.3c-.017-.003-.032-.008-.048-.012a4.673 4.673 0 00-.358-.056h-.013a3.841 3.841 0 00-.83 0h-.012a3.6 3.6 0 00-.358.056l-.047.013a3.937 3.937 0 00-2.772 2.299l-.01.023a4.22 4.22 0 00-.115.315c-.006.018-.013.035-.018.053-.03.097-.056.198-.076.298l-.02.08a4.293 4.293 0 00-.044.295c-.004.03-.01.06-.013.09a3.933 3.933 0 003.9 4.33zm0-6.749c1.547 0 2.8 1.259 2.8 2.812a2.806 2.806 0 01-2.8 2.812 2.806 2.806 0 01-2.8-2.812A2.81 2.81 0 0114 11.26z" fill="#fff"/><path d="M3.618 23.492l.033.038c.137.15.278.298.422.445l.056.056c.145.145.293.286.443.424l.046.042c.157.142.317.28.48.418l.006.004a13.99 13.99 0 002.702 1.756l.168.084c.132.064.267.123.402.183.09.04.18.08.271.118a16.404 16.404 0 00.691.267l.322.112c.13.042.259.082.39.12.097.03.196.057.294.085a13.683 13.683 0 001.17.263c.085.015.168.032.256.046.164.026.329.047.493.068.081.01.162.023.243.031.177.02.355.032.533.045.07.004.14.012.21.015a15.376 15.376 0 001.501-.002c.07-.003.14-.011.21-.016.179-.012.357-.025.534-.044.082-.008.162-.02.243-.03.164-.022.33-.043.493-.07.086-.013.17-.03.256-.046.156-.028.311-.056.465-.09.092-.02.183-.042.274-.064.144-.034.288-.07.431-.108.098-.027.197-.057.295-.085a9.44 9.44 0 00.71-.233c.112-.04.224-.083.336-.126.12-.046.239-.092.356-.14l.27-.119c.136-.06.27-.119.403-.183.056-.026.112-.056.168-.083a13.999 13.999 0 002.702-1.756l.005-.004c.164-.136.324-.276.48-.419l.047-.041c.15-.138.297-.28.443-.424l.056-.057c.144-.145.284-.294.422-.445l.033-.037c5.065-5.623 4.777-14.266-.65-19.537a13.957 13.957 0 00-19.465 0c-5.427 5.271-5.714 13.914-.65 19.537v.002zM14 1.7c6.801.008 12.312 5.542 12.32 12.372 0 .397-.02.787-.056 1.177 0 .018 0 .038-.005.056-.038.384-.095.761-.168 1.133l-.012.072c-.076.378-.168.75-.28 1.116l-.015.056c-.112.37-.244.735-.392 1.09-.005.014-.008.027-.014.04l-.003.005a12.429 12.429 0 01-3.355 4.634l-.012.012c-.136.117-.274.231-.415.342l-.112.088c-.102.08-.206.156-.311.231-.075.056-.15.113-.228.163-.062.043-.125.084-.188.126-.119.078-.237.155-.357.23l-.05.03a12.078 12.078 0 01-4.754 1.659l-.336.038a1.079 1.079 0 00-.162.017 13.155 13.155 0 01-1.075.053h-.037a12.449 12.449 0 01-1.075-.055v-.003a2.288 2.288 0 00-.162-.011l-.325-.04.112.018c-.088-.01-.176-.023-.264-.035l.155.017-.65-.1v.004a12.078 12.078 0 01-4.117-1.563l-.05-.03c-.12-.074-.239-.152-.357-.23a9.824 9.824 0 01-.416-.289 11.295 11.295 0 01-.311-.23l-.112-.089a13.94 13.94 0 01-.415-.341l-.014-.013a12.427 12.427 0 01-3.355-4.633l-.003-.005-.015-.04a13.33 13.33 0 01-.392-1.09l-.015-.057a11.696 11.696 0 01-.28-1.116c-.005-.023-.008-.047-.012-.071-.073-.372-.13-.75-.168-1.133 0-.019 0-.038-.005-.057-.036-.389-.056-.78-.056-1.176C1.688 7.242 7.199 1.708 14 1.7zM1.12 32H5.6c.377 0 .728-.19.936-.506h-.079l-.453-.006-.51-.017-.689-.033-.352-.023-.437-.034-.683-.061a25.56 25.56 0 01-.952-.13l-.46-.078-.061-.012A7.777 7.777 0 010 30.521v.354A1.126 1.126 0 001.12 32zM28 30.875v-.354a7.787 7.787 0 01-1.87.58l-.443.078-.067.011c-.28.045-.582.085-.918.124-.168.017-.314.034-.46.045l-.688.056-.359.023-.694.033-.504.017-.454.006h-.078c.207.316.558.506.935.506h4.48A1.126 1.126 0 0028 30.875z" fill="#fff"/></svg>
